packages/match-logos/mono/svg/ucsd-medicine.svg

<svg fill="none" height="42" viewBox="0 0 152 42" width="152" xmlns="http://www.w3.org/2000/svg" xmlns:xlink="http://www.w3.org/1999/xlink"><clipPath id="a"><path d="m0 0h151.2v42h-151.2z"/></clipPath><g clip-path="url(#a)"><path d="m0 .945v-.63h8.61v.63c-1.785 0-2.835.21-2.835 2.625v10.815c0 3.36.735 6.615 5.04 6.615 4.725 0 5.46-2.73 5.46-6.615v-10.71c0-2.415-1.05-2.625-2.835-2.625v-.735h7.56v.63c-1.785 0-2.835.21-2.835 2.625v10.815c0 4.515-.63 7.875-7.455 7.875-6.72 0-7.77-3.255-7.77-7.875v-10.71c-.105-2.52-1.155-2.73-2.94-2.73zm30.24 21.42c2.415 0 4.2-.315 5.88-.84v-1.365c-.84.315-1.995.84-4.2.84-7.14 0-8.085-6.51-8.085-10.71 0-3.36.42-8.925 5.67-8.925 4.095 0 5.355 2.94 5.775 4.725h.84l-.315-5.145c-1.47-.42-3.675-.945-6.3-.945-7.035 0-8.925 4.41-8.925 10.5 0 6.93 3.15 11.865 9.66 11.865zm17.43-1.47c-3.465 0-5.04-1.995-5.25-3.78h-.84l.21 4.62c.84.105 3.36.63 5.565.63 4.515 0 8.085-1.995 8.085-6.09 0-3.15-1.68-4.41-4.305-5.985-2.835-1.68-6.72-2.625-6.72-5.565 0-2.205 1.89-3.57 4.095-3.57 3.465 0 4.83 1.995 5.04 3.78h.84l-.21-4.515c-1.365-.21-2.835-.42-5.04-.42-4.095 0-7.35 1.575-7.35 5.46 0 2.1.735 3.255 2.1 4.41 3.045 2.31 8.4 3.36 8.4 6.93.105 2.205-1.785 4.095-4.62 4.095zm16.8-6.195v-1.05c0-1.995 0-4.2-2.415-4.2-1.785 0-1.995.735-1.995 1.68 0 1.155-.84 1.47-1.365 1.47-.735 0-1.365-.525-1.365-1.26 0-1.89 2.835-2.835 4.83-2.835 3.99 0 4.725 1.89 4.725 4.62v7.245c0 1.05.315 1.365 1.26 1.365.21 0 .525-.105.735-.105v.42c-.315.105-1.05.21-2.1.21-1.68 0-2.205-.84-2.205-2.1h-.105c-.945 1.26-2.1 2.1-4.095 2.1s-3.465-1.365-3.465-3.255c-.105-4.2 5.355-4.2 7.56-4.305zm0 .945c-1.365 0-5.04.315-5.04 2.94 0 1.47.945 2.52 1.995 2.52 1.89 0 3.15-1.785 3.15-3.78zm11.655 5.88c-1.26 0-2.205-.21-2.205-2.1v-3.57c0-2.73 2.1-6.09 3.78-6.09 1.89 0 1.995 1.155 1.995 3.675v5.985c0 1.89-.945 2.1-2.205 2.1v.525h6.72v-.525c-1.26 0-2.205-.21-2.205-2.1v-6.615c-.105-2.73-.42-4.41-3.465-4.41-2.835 0-4.2 2.73-4.62 3.78h-.105v-3.78l-4.515.735v.525c.84.105 2.205.105 2.205 1.89v7.875c0 1.89-.945 2.1-2.205 2.1v.525h6.72v-.525zm19.005.525h-7.665v-.63c1.785 0 2.835-.21 2.835-2.625v-15.12c0-2.415-1.05-2.625-2.835-2.625v-.735h7.665c5.46 0 11.13 1.155 11.13 10.92 0 9.66-6.09 10.815-11.13 10.815zm0-1.26c5.565 0 7.875-3.045 7.875-9.555 0-5.985-1.68-9.66-7.875-9.66-1.68 0-1.89.21-1.89 2.73v13.755c0 2.415.21 2.73 1.89 2.73zm19.005.735c-1.26 0-2.205-.21-2.205-2.1v-11.025l-4.515.735v.525c.84.105 2.205.105 2.205 1.89v7.875c0 1.89-.945 2.1-2.205 2.1v.525h6.72zm-3.465-15.75c.945 0 1.68-.735 1.68-1.68s-.735-1.68-1.68-1.68-1.68.735-1.68 1.68.735 1.68 1.68 1.68zm3.465 9.24c0-4.2 1.68-6.615 5.88-6.615 2.625 0 4.935 1.47 4.935 4.83v.63h-8.4c0 2.415 1.155 7.35 5.985 7.35.63 0 1.47-.105 1.995-.42v.945c-.735.21-1.68.525-3.465.525-4.41.105-6.93-2.415-6.93-7.245zm2.415-2.1h5.88c0-1.575-.525-3.57-2.73-3.57s-3.15 2.52-3.15 3.57zm22.47 10.08c0 3.36-3.255 5.145-7.14 5.145-2.835 0-5.775-1.05-5.775-3.675 0-1.785 1.365-2.625 2.31-3.045-.525-.315-1.26-.84-1.26-2.1 0-1.05.945-2.205 1.26-2.52-.63-.525-1.68-1.47-1.68-3.885 0-3.78 2.73-4.515 5.46-4.515 1.365 0 2.1.21 3.045.735.42-1.05 1.155-3.15 2.94-3.15.84 0 1.365.525 1.365 1.365 0 .735-.525 1.26-1.365 1.26-.735 0-.945-.42-1.26-.42-.63 0-.945.84-1.05 1.26.315.42 1.26 1.47 1.26 3.465 0 2.94-1.785 4.62-5.355 4.62-1.155 0-1.995-.105-2.625-.42-.21.21-.525.63-.525 1.26 0 1.155 1.47 1.155 2.415 1.155h3.465c1.26.21 4.515.315 4.515 3.465zm-9.87-10.29c0 2.205.735 3.99 2.835 3.99 2.415 0 2.73-1.89 2.73-3.465 0-2.205-.735-3.885-2.835-3.885-2.31 0-2.73 1.68-2.73 3.36zm7.98 11.025c0-1.47-1.26-1.995-2.625-1.995h-5.04c-.63.42-1.365.945-1.365 2.205 0 1.68 1.575 3.15 4.095 3.15 2.52.105 4.935-1.26 4.935-3.36zm1.89-8.4c0-4.305 2.31-6.93 6.09-6.93 3.675 0 6.09 2.625 6.09 6.93s-2.31 6.93-6.09 6.93c-3.675.105-6.09-2.52-6.09-6.93zm2.625 0c0 2.415.63 5.985 3.465 5.985 2.94 0 3.465-3.57 3.465-5.985s-.63-5.985-3.465-5.985-3.465 3.675-3.465 5.985zm-17.01 11.76h-124.635v.735h125.37c-.315-.21-.525-.525-.735-.735zm13.965.735h12.285v-.735h-11.445c-.21.21-.525.525-.84.735zm-137.97 13.545c.525.315 1.575.63 2.52.63 2.31 0 3.465-1.365 3.465-2.835s-.84-2.31-2.52-2.94c-1.365-.525-1.995-.945-1.995-1.89 0-.63.525-1.47 1.89-1.47.945 0 1.575.315 1.89.42l.315-1.05c-.42-.21-1.155-.525-2.205-.525-1.89 0-3.255 1.155-3.255 2.73 0 1.365 1.05 2.205 2.625 2.835 1.365.525 1.89 1.05 1.89 1.995 0 1.05-.735 1.68-2.1 1.68-.84 0-1.68-.315-2.31-.63zm12.6-.735c-.42.21-.84.315-1.575.315-1.365 0-2.52-1.05-2.52-2.625 0-1.47.84-2.73 2.52-2.73.735 0 1.155.21 1.47.315l.315-1.05c-.315-.21-1.05-.42-1.785-.42-2.31 0-3.78 1.575-3.78 3.78s1.365 3.675 3.57 3.675c.945 0 1.68-.21 1.995-.42zm1.785 1.155h1.26v-4.305c0-.21 0-.42.105-.63.21-.735.945-1.26 1.785-1.26 1.26 0 1.68.945 1.68 2.1v4.095h1.26v-4.2c0-2.415-1.575-3.045-2.52-3.045-.525 0-.945.105-1.365.315s-.735.525-.945.945v-4.41h-1.26zm11.13-7.245c-1.995 0-3.57 1.365-3.57 3.78 0 2.205 1.47 3.675 3.36 3.675 1.68 0 3.57-1.155 3.57-3.78.105-2.205-1.26-3.675-3.36-3.675zm0 .945c1.575 0 2.1 1.575 2.1 2.73 0 1.575-.945 2.73-2.205 2.73s-2.205-1.155-2.205-2.73c.105-1.26.735-2.73 2.31-2.73zm8.085-.945c-1.995 0-3.57 1.365-3.57 3.78 0 2.205 1.47 3.675 3.36 3.675 1.68 0 3.57-1.155 3.57-3.78.105-2.205-1.26-3.675-3.36-3.675zm0 .945c1.575 0 2.1 1.575 2.1 2.73 0 1.575-.945 2.73-2.205 2.73s-2.205-1.155-2.205-2.73c.105-1.26.735-2.73 2.31-2.73zm5.04 6.3h1.26v-10.395h-1.26zm9.66-7.245c-1.995 0-3.57 1.365-3.57 3.78 0 2.205 1.47 3.675 3.36 3.675 1.68 0 3.57-1.155 3.57-3.78 0-2.205-1.365-3.675-3.36-3.675zm-.105.945c1.575 0 2.1 1.575 2.1 2.73 0 1.575-.945 2.73-2.205 2.73s-2.205-1.155-2.205-2.73c.21-1.26.84-2.73 2.31-2.73zm6.51 6.3v-6.09h1.68v-.945h-1.68v-.42c0-1.05.315-2.1 1.365-2.1.42 0 .63.105.84.21l.21-1.05c-.21-.105-.63-.21-1.155-.21-.63 0-1.26.21-1.785.63-.63.525-.84 1.47-.84 2.52v.315h-1.05v1.05h1.05v6.09zm14.7 0h1.26l-.63-9.87h-1.68l-1.785 4.83c-.42 1.26-.84 2.31-1.05 3.36-.21-1.05-.63-2.1-1.05-3.36l-1.68-4.83h-1.68l-.735 9.87h1.26l.315-4.2c.105-1.47.21-3.15.21-4.41.315 1.155.63 2.415 1.155 3.885l1.575 4.725h.945l1.785-4.83c.525-1.365.945-2.625 1.26-3.78 0 1.26.105 2.94.105 4.305zm8.925-3.255v-.63c0-1.26-.63-3.36-2.94-3.36-2.1 0-3.36 1.68-3.36 3.885 0 2.1 1.26 3.57 3.465 3.57 1.155 0 1.89-.21 2.415-.42l-.21-.945c-.525.21-1.05.42-1.995.42-1.26 0-2.415-.735-2.415-2.52zm-4.935-.945c.105-.945.63-2.1 1.995-2.1 1.47 0 1.785 1.26 1.785 2.1zm11.445-6.195v4.2c-.315-.525-1.05-1.05-2.1-1.05-1.785 0-3.255 1.47-3.15 3.78 0 2.205 1.365 3.57 3.045 3.57 1.155 0 1.995-.63 2.415-1.365l.105 1.26h1.155c0-.525-.105-1.155-.105-1.89v-8.61h-1.365zm0 7.455c0 .21 0 .42-.105.525-.21.945-1.05 1.575-1.89 1.575-1.365 0-2.1-1.155-2.1-2.625 0-1.575.84-2.73 2.1-2.73.945 0 1.68.63 1.89 1.47 0 .21.105.42.105.525zm4.095-6.93c-.42 0-.84.315-.84.84 0 .42.315.84.735.84.525 0 .84-.315.84-.84.105-.525-.21-.84-.735-.84zm.63 9.87v-7.14h-1.26v7.14zm7.035-1.155c-.42.21-.84.315-1.575.315-1.365 0-2.52-1.05-2.52-2.625 0-1.47.84-2.73 2.52-2.73.735 0 1.155.21 1.47.315l.315-1.05c-.315-.21-1.05-.42-1.785-.42-2.31 0-3.78 1.575-3.78 3.78s1.365 3.675 3.57 3.675c.945 0 1.68-.21 1.995-.42zm2.31-8.715c-.42 0-.84.315-.84.84 0 .42.315.84.735.84.525 0 .84-.315.84-.84.105-.525-.21-.84-.735-.84zm.735 9.87v-7.14h-1.26v7.14zm2.1 0h1.26v-4.305c0-.21 0-.42.105-.63.21-.735.84-1.365 1.785-1.365 1.26 0 1.68.945 1.68 2.1v4.095h1.26v-4.2c0-2.415-1.575-3.045-2.52-3.045-1.155 0-1.995.63-2.31 1.365l-.105-1.155h-1.155c0 .63.105 1.155.105 1.89v5.25zm13.86-3.255v-.63c0-1.26-.63-3.36-2.94-3.36-2.1 0-3.36 1.68-3.36 3.885 0 2.1 1.26 3.57 3.465 3.57 1.155 0 1.89-.21 2.415-.42l-.21-.945c-.525.21-1.05.42-1.995.42-1.26 0-2.415-.735-2.415-2.52zm-4.935-.945c.105-.945.63-2.1 1.995-2.1 1.47 0 1.785 1.26 1.785 2.1z" fill="#1f304c"/></g></svg>

<svg width="152" height="42" viewBox="0 0 152 42" fill="none" xmlns="http://www.w3.org/2000/svg">
<g clip-path="url(#clip0)">
<path d="M0 0.945V0.315H8.61V0.945C6.825 0.945 5.775 1.155 5.775 3.57V14.385C5.775 17.745 6.51 21 10.815 21C15.54 21 16.275 18.27 16.275 14.385V3.675C16.275 1.26 15.225 1.05 13.44 1.05V0.315H21V0.945C19.215 0.945 18.165 1.155 18.165 3.57V14.385C18.165 18.9 17.535 22.26 10.71 22.26C3.99 22.26 2.94 19.005 2.94 14.385V3.675C2.835 1.155 1.785 0.945 0 0.945ZM30.24 22.365C32.655 22.365 34.44 22.05 36.12 21.525V20.16C35.28 20.475 34.125 21 31.92 21C24.78 21 23.835 14.49 23.835 10.29C23.835 6.93 24.255 1.365 29.505 1.365C33.6 1.365 34.86 4.305 35.28 6.09H36.12L35.805 0.945C34.335 0.525 32.13 0 29.505 0C22.47 0 20.58 4.41 20.58 10.5C20.58 17.43 23.73 22.365 30.24 22.365ZM47.67 20.895C44.205 20.895 42.63 18.9 42.42 17.115H41.58L41.79 21.735C42.63 21.84 45.15 22.365 47.355 22.365C51.87 22.365 55.44 20.37 55.44 16.275C55.44 13.125 53.76 11.865 51.135 10.29C48.3 8.61 44.415 7.665 44.415 4.725C44.415 2.52 46.305 1.155 48.51 1.155C51.975 1.155 53.34 3.15 53.55 4.935H54.39L54.18 0.42C52.815 0.21 51.345 0 49.14 0C45.045 0 41.79 1.575 41.79 5.46C41.79 7.56 42.525 8.715 43.89 9.87C46.935 12.18 52.29 13.23 52.29 16.8C52.395 19.005 50.505 20.895 47.67 20.895ZM64.47 14.7V13.65C64.47 11.655 64.47 9.45 62.055 9.45C60.27 9.45 60.06 10.185 60.06 11.13C60.06 12.285 59.22 12.6 58.695 12.6C57.96 12.6 57.33 12.075 57.33 11.34C57.33 9.45 60.165 8.505 62.16 8.505C66.15 8.505 66.885 10.395 66.885 13.125V20.37C66.885 21.42 67.2 21.735 68.145 21.735C68.355 21.735 68.67 21.63 68.88 21.63V22.05C68.565 22.155 67.83 22.26 66.78 22.26C65.1 22.26 64.575 21.42 64.575 20.16H64.47C63.525 21.42 62.37 22.26 60.375 22.26C58.38 22.26 56.91 20.895 56.91 19.005C56.805 14.805 62.265 14.805 64.47 14.7ZM64.47 15.645C63.105 15.645 59.43 15.96 59.43 18.585C59.43 20.055 60.375 21.105 61.425 21.105C63.315 21.105 64.575 19.32 64.575 17.325L64.47 15.645ZM76.125 21.525C74.865 21.525 73.92 21.315 73.92 19.425V15.855C73.92 13.125 76.02 9.765 77.7 9.765C79.59 9.765 79.695 10.92 79.695 13.44V19.425C79.695 21.315 78.75 21.525 77.49 21.525V22.05H84.21V21.525C82.95 21.525 82.005 21.315 82.005 19.425V12.81C81.9 10.08 81.585 8.4 78.54 8.4C75.705 8.4 74.34 11.13 73.92 12.18H73.815V8.4L69.3 9.135V9.66C70.14 9.765 71.505 9.765 71.505 11.55V19.425C71.505 21.315 70.56 21.525 69.3 21.525V22.05H76.02V21.525H76.125ZM95.13 22.05H87.465V21.42C89.25 21.42 90.3 21.21 90.3 18.795V3.675C90.3 1.26 89.25 1.05 87.465 1.05V0.315H95.13C100.59 0.315 106.26 1.47 106.26 11.235C106.26 20.895 100.17 22.05 95.13 22.05ZM95.13 20.79C100.695 20.79 103.005 17.745 103.005 11.235C103.005 5.25 101.325 1.575 95.13 1.575C93.45 1.575 93.24 1.785 93.24 4.305V18.06C93.24 20.475 93.45 20.79 95.13 20.79ZM114.135 21.525C112.875 21.525 111.93 21.315 111.93 19.425V8.4L107.415 9.135V9.66C108.255 9.765 109.62 9.765 109.62 11.55V19.425C109.62 21.315 108.675 21.525 107.415 21.525V22.05H114.135V21.525ZM110.67 5.775C111.615 5.775 112.35 5.04 112.35 4.095C112.35 3.15 111.615 2.415 110.67 2.415C109.725 2.415 108.99 3.15 108.99 4.095C108.99 5.04 109.725 5.775 110.67 5.775ZM114.135 15.015C114.135 10.815 115.815 8.4 120.015 8.4C122.64 8.4 124.95 9.87 124.95 13.23V13.86H116.55C116.55 16.275 117.705 21.21 122.535 21.21C123.165 21.21 124.005 21.105 124.53 20.79V21.735C123.795 21.945 122.85 22.26 121.065 22.26C116.655 22.365 114.135 19.845 114.135 15.015ZM116.55 12.915H122.43C122.43 11.34 121.905 9.345 119.7 9.345C117.495 9.345 116.55 11.865 116.55 12.915ZM139.02 22.995C139.02 26.355 135.765 28.14 131.88 28.14C129.045 28.14 126.105 27.09 126.105 24.465C126.105 22.68 127.47 21.84 128.415 21.42C127.89 21.105 127.155 20.58 127.155 19.32C127.155 18.27 128.1 17.115 128.415 16.8C127.785 16.275 126.735 15.33 126.735 12.915C126.735 9.135 129.465 8.4 132.195 8.4C133.56 8.4 134.295 8.61 135.24 9.135C135.66 8.085 136.395 5.985 138.18 5.985C139.02 5.985 139.545 6.51 139.545 7.35C139.545 8.085 139.02 8.61 138.18 8.61C137.445 8.61 137.235 8.19 136.92 8.19C136.29 8.19 135.975 9.03 135.87 9.45C136.185 9.87 137.13 10.92 137.13 12.915C137.13 15.855 135.345 17.535 131.775 17.535C130.62 17.535 129.78 17.43 129.15 17.115C128.94 17.325 128.625 17.745 128.625 18.375C128.625 19.53 130.095 19.53 131.04 19.53H134.505C135.765 19.74 139.02 19.845 139.02 22.995ZM129.15 12.705C129.15 14.91 129.885 16.695 131.985 16.695C134.4 16.695 134.715 14.805 134.715 13.23C134.715 11.025 133.98 9.345 131.88 9.345C129.57 9.345 129.15 11.025 129.15 12.705ZM137.13 23.73C137.13 22.26 135.87 21.735 134.505 21.735H129.465C128.835 22.155 128.1 22.68 128.1 23.94C128.1 25.62 129.675 27.09 132.195 27.09C134.715 27.195 137.13 25.83 137.13 23.73ZM139.02 15.33C139.02 11.025 141.33 8.4 145.11 8.4C148.785 8.4 151.2 11.025 151.2 15.33C151.2 19.635 148.89 22.26 145.11 22.26C141.435 22.365 139.02 19.74 139.02 15.33ZM141.645 15.33C141.645 17.745 142.275 21.315 145.11 21.315C148.05 21.315 148.575 17.745 148.575 15.33C148.575 12.915 147.945 9.345 145.11 9.345C142.275 9.345 141.645 13.02 141.645 15.33ZM124.635 27.09H0V27.825H125.37C125.055 27.615 124.845 27.3 124.635 27.09ZM138.6 27.825H150.885V27.09H139.44C139.23 27.3 138.915 27.615 138.6 27.825ZM0.63 41.37C1.155 41.685 2.205 42 3.15 42C5.46 42 6.615 40.635 6.615 39.165C6.615 37.695 5.775 36.855 4.095 36.225C2.73 35.7 2.1 35.28 2.1 34.335C2.1 33.705 2.625 32.865 3.99 32.865C4.935 32.865 5.565 33.18 5.88 33.285L6.195 32.235C5.775 32.025 5.04 31.71 3.99 31.71C2.1 31.71 0.735 32.865 0.735 34.44C0.735 35.805 1.785 36.645 3.36 37.275C4.725 37.8 5.25 38.325 5.25 39.27C5.25 40.32 4.515 40.95 3.15 40.95C2.31 40.95 1.47 40.635 0.84 40.32L0.63 41.37ZM13.23 40.635C12.81 40.845 12.39 40.95 11.655 40.95C10.29 40.95 9.135 39.9 9.135 38.325C9.135 36.855 9.975 35.595 11.655 35.595C12.39 35.595 12.81 35.805 13.125 35.91L13.44 34.86C13.125 34.65 12.39 34.44 11.655 34.44C9.345 34.44 7.875 36.015 7.875 38.22C7.875 40.425 9.24 41.895 11.445 41.895C12.39 41.895 13.125 41.685 13.44 41.475L13.23 40.635ZM15.015 41.79H16.275V37.485C16.275 37.275 16.275 37.065 16.38 36.855C16.59 36.12 17.325 35.595 18.165 35.595C19.425 35.595 19.845 36.54 19.845 37.695V41.79H21.105V37.59C21.105 35.175 19.53 34.545 18.585 34.545C18.06 34.545 17.64 34.65 17.22 34.86C16.8 35.07 16.485 35.385 16.275 35.805V31.395H15.015V41.79ZM26.145 34.545C24.15 34.545 22.575 35.91 22.575 38.325C22.575 40.53 24.045 42 25.935 42C27.615 42 29.505 40.845 29.505 38.22C29.61 36.015 28.245 34.545 26.145 34.545ZM26.145 35.49C27.72 35.49 28.245 37.065 28.245 38.22C28.245 39.795 27.3 40.95 26.04 40.95C24.78 40.95 23.835 39.795 23.835 38.22C23.94 36.96 24.57 35.49 26.145 35.49ZM34.23 34.545C32.235 34.545 30.66 35.91 30.66 38.325C30.66 40.53 32.13 42 34.02 42C35.7 42 37.59 40.845 37.59 38.22C37.695 36.015 36.33 34.545 34.23 34.545ZM34.23 35.49C35.805 35.49 36.33 37.065 36.33 38.22C36.33 39.795 35.385 40.95 34.125 40.95C32.865 40.95 31.92 39.795 31.92 38.22C32.025 36.96 32.655 35.49 34.23 35.49ZM39.27 41.79H40.53V31.395H39.27V41.79ZM48.93 34.545C46.935 34.545 45.36 35.91 45.36 38.325C45.36 40.53 46.83 42 48.72 42C50.4 42 52.29 40.845 52.29 38.22C52.29 36.015 50.925 34.545 48.93 34.545ZM48.825 35.49C50.4 35.49 50.925 37.065 50.925 38.22C50.925 39.795 49.98 40.95 48.72 40.95C47.46 40.95 46.515 39.795 46.515 38.22C46.725 36.96 47.355 35.49 48.825 35.49ZM55.335 41.79V35.7H57.015V34.755H55.335V34.335C55.335 33.285 55.65 32.235 56.7 32.235C57.12 32.235 57.33 32.34 57.54 32.445L57.75 31.395C57.54 31.29 57.12 31.185 56.595 31.185C55.965 31.185 55.335 31.395 54.81 31.815C54.18 32.34 53.97 33.285 53.97 34.335V34.65H52.92V35.7H53.97V41.79H55.335ZM70.035 41.79H71.295L70.665 31.92H68.985L67.2 36.75C66.78 38.01 66.36 39.06 66.15 40.11C65.94 39.06 65.52 38.01 65.1 36.75L63.42 31.92H61.74L61.005 41.79H62.265L62.58 37.59C62.685 36.12 62.79 34.44 62.79 33.18C63.105 34.335 63.42 35.595 63.945 37.065L65.52 41.79H66.465L68.25 36.96C68.775 35.595 69.195 34.335 69.51 33.18C69.51 34.44 69.615 36.12 69.615 37.485L70.035 41.79ZM78.96 38.535V37.905C78.96 36.645 78.33 34.545 76.02 34.545C73.92 34.545 72.66 36.225 72.66 38.43C72.66 40.53 73.92 42 76.125 42C77.28 42 78.015 41.79 78.54 41.58L78.33 40.635C77.805 40.845 77.28 41.055 76.335 41.055C75.075 41.055 73.92 40.32 73.92 38.535H78.96ZM74.025 37.59C74.13 36.645 74.655 35.49 76.02 35.49C77.49 35.49 77.805 36.75 77.805 37.59H74.025ZM85.47 31.395V35.595C85.155 35.07 84.42 34.545 83.37 34.545C81.585 34.545 80.115 36.015 80.22 38.325C80.22 40.53 81.585 41.895 83.265 41.895C84.42 41.895 85.26 41.265 85.68 40.53L85.785 41.79H86.94C86.94 41.265 86.835 40.635 86.835 39.9V31.29H85.47V31.395ZM85.47 38.85C85.47 39.06 85.47 39.27 85.365 39.375C85.155 40.32 84.315 40.95 83.475 40.95C82.11 40.95 81.375 39.795 81.375 38.325C81.375 36.75 82.215 35.595 83.475 35.595C84.42 35.595 85.155 36.225 85.365 37.065C85.365 37.275 85.47 37.485 85.47 37.59V38.85ZM89.565 31.92C89.145 31.92 88.725 32.235 88.725 32.76C88.725 33.18 89.04 33.6 89.46 33.6C89.985 33.6 90.3 33.285 90.3 32.76C90.405 32.235 90.09 31.92 89.565 31.92ZM90.195 41.79V34.65H88.935V41.79H90.195ZM97.23 40.635C96.81 40.845 96.39 40.95 95.655 40.95C94.29 40.95 93.135 39.9 93.135 38.325C93.135 36.855 93.975 35.595 95.655 35.595C96.39 35.595 96.81 35.805 97.125 35.91L97.44 34.86C97.125 34.65 96.39 34.44 95.655 34.44C93.345 34.44 91.875 36.015 91.875 38.22C91.875 40.425 93.24 41.895 95.445 41.895C96.39 41.895 97.125 41.685 97.44 41.475L97.23 40.635ZM99.54 31.92C99.12 31.92 98.7 32.235 98.7 32.76C98.7 33.18 99.015 33.6 99.435 33.6C99.96 33.6 100.275 33.285 100.275 32.76C100.38 32.235 100.065 31.92 99.54 31.92ZM100.275 41.79V34.65H99.015V41.79H100.275ZM102.375 41.79H103.635V37.485C103.635 37.275 103.635 37.065 103.74 36.855C103.95 36.12 104.58 35.49 105.525 35.49C106.785 35.49 107.205 36.435 107.205 37.59V41.685H108.465V37.485C108.465 35.07 106.89 34.44 105.945 34.44C104.79 34.44 103.95 35.07 103.635 35.805L103.53 34.65H102.375C102.375 35.28 102.48 35.805 102.48 36.54V41.79H102.375ZM116.235 38.535V37.905C116.235 36.645 115.605 34.545 113.295 34.545C111.195 34.545 109.935 36.225 109.935 38.43C109.935 40.53 111.195 42 113.4 42C114.555 42 115.29 41.79 115.815 41.58L115.605 40.635C115.08 40.845 114.555 41.055 113.61 41.055C112.35 41.055 111.195 40.32 111.195 38.535H116.235ZM111.3 37.59C111.405 36.645 111.93 35.49 113.295 35.49C114.765 35.49 115.08 36.75 115.08 37.59H111.3Z" fill="#1F304C"/>
</g>
<defs>
<clipPath id="clip0">
<rect width="151.2" height="42" fill="white"/>
</clipPath>
</defs>
</svg>
